X: 14322
T: Good Night and Joy be with you
%R: reel
B: James Oswald "The Caledonian Pocket Companion" v.1 b.4 p.32 #2
S: https://ia800501.us.archive.org/18/items/caledonianpocket01rugg/caledonianpocket01rugg_bw.pdf
Z: 2020 John Chambers <jc:trillian.mit.edu>
N: Added initial rest to Strain 2's pickup note to fix the rhythm.
M: C|
L: 1/8
K: C	% and Am
"_Brisk"(ed) |\
c2c2 G3c | A2A2 a3g | (eg)(ag) (eg)(ag) | Te2(dc) c2 :: ze | d3e d2(cA) | (GA)(cd) Te2(dc) | d^cde fefg | a2d2 Td3e |
f2f2 f2(ag) | edeg Te2(dc) | (de)(ga) (eg)(de) | c2A2 A2 :: (ed) | c2(AG) G2(Ac) | (AG)(Ac) a3g | ecgc acgc |
(gf)(ed) c2 :: (ge) | (dc)(de) A3d | c2(de) (ge)(dc) | .d(fed) .A(fed) | (ag)(fe) d3e | fcAF Acfa | gedc g3e |
fdge afed | Tc2A2 A2 :: (ed) | .c(GAG) (EG)(cB) | A2a2 a2(gf) | .e(GAG) .A(agf) | Te2(dc) c2 :: (eg) | d2(ec) (dc)A2 |
(cA)G2 (AG)E2 | G2(Ac) (dc)(de) | a2(ge) d3e | (fa)f2(fa)f2 | Te2(dc) Tg3e | (dc)(de) (ge)(de) | Tc2A2 A2 :|

%%center FINE


